teeny/outline/adjust-horizontal-alt.svg

<svg width="15" height="15" viewBox="0 0 15 15" fill="none" xmlns="http://www.w3.org/2000/svg">
<path d="M15 3.5L6.5 3.5M6.5 3.5C6.5 2.39543 5.60457 1.5 4.5 1.5C3.39543 1.5 2.5 2.39543 2.5 3.5M6.5 3.5C6.5 4.60457 5.60457 5.5 4.5 5.5C3.39543 5.5 2.5 4.60457 2.5 3.5M2.5 3.5L0 3.5M15 11.5L12.5 11.5M12.5 11.5C12.5 10.3954 11.6046 9.5 10.5 9.5C9.39543 9.5 8.5 10.3954 8.5 11.5M12.5 11.5C12.5 12.6046 11.6046 13.5 10.5 13.5C9.39543 13.5 8.5 12.6046 8.5 11.5M8.5 11.5H1.27146e-07" stroke="black"/>
</svg>

<svg viewBox="0 0 15 15" xmlns="http://www.w3.org/2000/svg"><path fill="none" stroke="#000" d="M15 3.5H6.5m0 0c0-1.11-.9-2-2-2 -1.11 0-2 .89-2 2m4 0c0 1.1-.9 2-2 2 -1.11 0-2-.9-2-2m0 0H0m15 8h-2.5m0 0c0-1.11-.9-2-2-2 -1.11 0-2 .89-2 2m4 0c0 1.1-.9 2-2 2 -1.11 0-2-.9-2-2m0 0H0"/></svg>
